X:1
T:Title
%%score { 1 | ( 2 3 ) }
L:1/8
M:6/4
K:G
V:1 treble nm="Grand Piano"
V:2 bass 
V:3 bass 
V:1
 z6 z4[Q:1/4=108] D2 | B4 G2 D4 D2 | E2 G2 [EGc]2 [DGB]4 [DGB]2 | %3
 [EGB]2 [FA]2 [B,EG]2 [^CE]2 F2 G2 |[M:5/4] [FA]2- [FA]2- [FA]6 |[M:1/4] D2 |[M:6/4] B4 G2 D4 D2 | %7
 E2 G2 [EGc]2 B4 B2 | d2 G2 [EAc]2 [DGB]4 [CDA]2 |[M:5/4] [G,B,DG]2- [G,B,DG]2- [G,B,DG]6 | %10
[M:1/4] [B,DG]2 |[M:6/4] [CFA]4 [B,=F^G]2 [C^FA]4 [Fd]2 | d4 B2 G4 G2 | G2 F2 G2 B2 A2 E2 | %14
[M:5/4] [FA]2- [FA]2- [FA]6 |[M:1/4] D2 |[M:6/4] B4 _B2 =B4 [=Fd]2 | [Ed]4 [Ec]2 [Ec]4 E2 | %18
 D2 G2 [Fc]2 [GB]4 [DA]2 |[M:5/4] [B,DG]2- [B,DG]2- [B,DG]6 |] %20
V:2
 z6 z4 [G,B,]2 | [G,D]4 [G,B,]2 [G,B,]4 [G,B,]2 | [G,C]2 [CE]2 C,2 G,4 G,2 | %3
 z2 B,2 E,2 z2 D2 [A,^CE]2 |[M:5/4] [D,C]2- [D,C]2- [D,C]6 |[M:1/4] [F,A,]2 | %6
[M:6/4] [G,D]4 [G,B,]2 [G,B,]4 [G,B,]2 | C,2- [C,CE]2 C,2[K:treble] [G,DG]4 [G,DG]2 | %8
 .[G,B,]6[K:bass] z6 |[M:5/4] G,,2- G,,2- G,,6 |[M:1/4] G,2 |[M:6/4] D,4 D,2 D,4 [D,C]2 | %12
 [G,B,G]4 [G,DG]2[K:bass] [G,B,D]4 [G,B,D]2 | B,2 A,2 [E,B,E]2 [A,^CE]4 [A,C]2 | %14
[M:5/4] [D,C]2- [D,C]2- [D,C]6 |[M:1/4] [F,A,]2 |[M:6/4] [G,D]4 [G,^C]2 [G,D]4 [B,,G,]2 | %17
 [C,G,]4 [C,G,]2 [C,G,]4 [C,G,C]2 | .[G,B,]6 z6 |[M:5/4] [G,,G,]2- [G,,G,]2- [G,,G,]6 |] %20
V:3
 x12 | x12 | .C,6 z6 | .E,6 .A,6 |[M:5/4] x10 |[M:1/4] x2 |[M:6/4] x12 | .[G,C]6[K:treble] z6 | %8
 G2 D2[K:bass] C,2 D,4 D,2 |[M:5/4] x10 |[M:1/4] x2 |[M:6/4] x12 | x6[K:bass] x6 | .[E,E]6 z6 | %14
[M:5/4] x10 |[M:1/4] x2 |[M:6/4] x12 | x12 | D,2- [D,B,D]2 [D,A,]2 [D,D]4 [D,C]2 |[M:5/4] x10 |] %20

